black/svg/F8FF.svg

<svg id="emoji" viewBox="0 0 72 72" xmlns="http://www.w3.org/2000/svg">
  <g id="line">
    <path id="path4" fill="none" stroke="#000" stroke-linecap="round" stroke-linejoin="round" stroke-width="2" d="m35.1564,22.0973c-.0375-.3071-.0592-.6303-.0592-.97,0-2.4577,1.0669-5.0879,2.9617-7.2385.946-1.0889,2.1491-1.9943,3.608-2.7165,1.4558-.7115,2.8329-1.1049,4.128-1.1723.0378.3422.0535.6845.0535,1.0241,0,2.5601-.9327,4.9505-2.7918,7.163-.8303.9733-1.725,1.7946-2.6718,2.4309m15.314,30.2229c-.772,1.7884-1.6858,3.4347-2.7446,4.9483-1.4432,2.0633-2.6249,3.4915-3.5356,4.2847-1.4117,1.3018-2.9242,1.9685-4.5439,2.0064-1.1627,0-2.565-.3317-4.1972-1.0048-1.6377-.6699-3.1426-1.0016-4.5187-1.0016-1.4432,0-2.9911.3317-4.6466,1.0016-1.6582.6731-2.9939,1.0238-4.0152,1.0586-1.5532.0663-3.1013-.6194-4.6466-2.0602-.9863-.8627-2.22-2.3415-3.6978-4.4364-1.5857-2.2372-2.8893-4.8314-3.9106-7.7889-1.0937-3.1946-1.642-6.2881-1.642-9.2829,0-3.4306.7393-6.3895,2.22-8.869,1.1637-1.9916,2.7118-3.5627,4.6494-4.716,1.9376-1.1533,4.0312-1.7411,6.2858-1.7787,1.2337,0,2.8515.3827,4.8619,1.1347,2.0047.7546,3.292,1.1372,3.8563,1.1372.4219,0,1.8519-.4474,4.2761-1.3394,2.2924-.8272,4.2272-1.1698,5.8122-1.0348,4.2949.3475,7.5217,2.0453,9.6676,5.104-3.8412,2.3338-5.7413,5.6027-5.7035,9.796.0346,3.2663,1.2163,5.9844,3.5387,8.1426,1.0524,1.0016,2.2278,1.7758,3.5355,2.3256-.2836.8247-.5829,1.6146-.9012,2.373Z"/>
  </g>
</svg>

<svg id="emoji" viewBox="0 0 72 72" xmlns="http://www.w3.org/2000/svg">
  <g id="line">
    <path id="path4" fill="none" stroke="#000" stroke-linecap="round" stroke-linejoin="round" stroke-width="2" d="M35.1564 22.0973C35.1189 21.7902 35.0972 21.467 35.0972 21.1273C35.0972 18.6696 36.1641 16.0394 38.0589 13.8888C39.0049 12.7999 40.208 11.8945 41.6669 11.1723C43.1227 10.4608 44.4998 10.0674 45.7949 10C45.8327 10.3422 45.8484 10.6845 45.8484 11.0241C45.8484 13.5842 44.9157 15.9746 43.0566 18.1871C42.2263 19.1604 41.3316 19.9817 40.3848 20.618M55.6988 50.8409C54.9268 52.6293 54.013 54.2756 52.9542 55.7892C51.511 57.8525 50.3293 59.2807 49.4186 60.0739C48.0069 61.3757 46.4944 62.0424 44.8747 62.0803C43.712 62.0803 42.3097 61.7486 40.6775 61.0755C39.0398 60.4056 37.5349 60.0739 36.1588 60.0739C34.7156 60.0739 33.1677 60.4056 31.5122 61.0755C29.854 61.7486 28.5183 62.0993 27.497 62.1341C25.9438 62.2004 24.3957 61.5147 22.8504 60.0739C21.8641 59.2112 20.6304 57.7324 19.1526 55.6375C17.5669 53.4003 16.2633 50.8061 15.242 47.8486C14.1483 44.654 13.6 41.5605 13.6 38.5657C13.6 35.1351 14.3393 32.1762 15.82 29.6967C16.9837 27.7051 18.5318 26.134 20.4694 24.9807C22.407 23.8274 24.5006 23.2396 26.7552 23.202C27.9889 23.202 29.6067 23.5847 31.6171 24.3367C33.6218 25.0913 34.9091 25.4739 35.4734 25.4739C35.8953 25.4739 37.3253 25.0265 39.7495 24.1345C42.0419 23.3073 43.9767 22.9647 45.5617 23.0997C49.8566 23.4472 53.0834 25.145 55.2293 28.2037C51.3881 30.5375 49.488 33.8064 49.5258 37.9997C49.5604 41.266 50.7421 43.9841 53.0645 46.1423C54.1169 47.1439 55.2923 47.9181 56.6 48.4679C56.3164 49.2926 56.0171 50.0825 55.6988 50.8409Z"/>
  </g>
</svg>
